Papirus-nordic/64x64/places/folder-red-gitlab.svg

<svg xmlns="http://www.w3.org/2000/svg" width="64" height="64" version="1.1">
 <rect style="opacity:0.2" width="50" height="32" x="7" y="24" rx="2.5" ry="2.5"/>
 <path style="fill:#ae4f58" d="M 7,44.5 C 7,45.885 8.115,47 9.5,47 H 54.5 C 55.885,47 57,45.885 57,44.5 V 17.5 C 57,16.115 55.885,15 54.5,15 H 29 V 12.5 C 29,11.115 27.885,10 26.5,10 H 9.5 C 8.115,10 7,11.115 7,12.5"/>
 <rect style="opacity:0.2" width="50" height="32" x="7" y="22" rx="2.5" ry="2.5"/>
 <rect style="fill:#e4e4e4" width="44" height="20" x="10" y="18" rx="2.5" ry="2.5"/>
 <rect style="fill:#bf616a" width="50" height="32" x="7" y="23" rx="2.5" ry="2.5"/>
 <path style="opacity:0.1;fill:#ffffff" d="M 9.5,10 C 8.115,10 7,11.115 7,12.5 V 13.5 C 7,12.115 8.115,11 9.5,11 H 26.5 C 27.885,11 29,12.115 29,13.5 V 12.5 C 29,11.115 27.885,10 26.5,10 Z M 29,15 V 16 H 54.5 C 55.89,16 57,17.115 57,18.5 V 17.5 C 57,16.115 55.89,15 54.5,15 Z"/>
 <path style="fill:#974a4d;fill-rule:evenodd" d="m 25.110772,29.000198 c -0.168021,0 -0.336245,0.09512 -0.398989,0.28577 L 22.473,36 h 5.475716 l -2.438954,-6.714032 c -0.06277,-0.190646 -0.230969,-0.28577 -0.39899,-0.28577 z M 27.948716,36 32,49 36.051284,36 Z m 8.102568,0 H 41.527 l -2.238782,-6.714032 c -0.125489,-0.381291 -0.672432,-0.381291 -0.79798,0 z M 41.527,36 32,49 42.654057,41.360274 c 0.293973,-0.210714 0.417136,-0.584128 0.30487,-0.925156 z M 32,49 22.473,36 21.041073,40.435118 c -0.112266,0.341028 0.0109,0.714442 0.30487,0.925156 z"/>
</svg>

<svg xmlns="http://www.w3.org/2000/svg" width="64" height="64"><rect width="50" height="32" x="7" y="24" rx="2.5" ry="2.5" opacity=".2"/><path d="M7 44.5C7 45.885 8.115 47 9.5 47h45c1.385 0 2.5-1.115 2.5-2.5v-27c0-1.385-1.115-2.5-2.5-2.5H29v-2.5c0-1.385-1.115-2.5-2.5-2.5h-17A2.495 2.495 0 0 0 7 12.5" fill="#ae4f58"/><rect width="50" height="32" x="7" y="22" rx="2.5" ry="2.5" opacity=".2"/><rect width="44" height="20" x="10" y="18" rx="2.5" ry="2.5" fill="#e4e4e4"/><rect width="50" height="32" x="7" y="23" rx="2.5" ry="2.5" fill="#bf616a"/><path d="M9.5 10A2.495 2.495 0 0 0 7 12.5v1C7 12.115 8.115 11 9.5 11h17c1.385 0 2.5 1.115 2.5 2.5v-1c0-1.385-1.115-2.5-2.5-2.5zM29 15v1h25.5c1.39 0 2.5 1.115 2.5 2.5v-1c0-1.385-1.11-2.5-2.5-2.5z" opacity=".1" fill="#fff"/><path d="M25.11 29a.411.411 0 0 0-.398.286L22.473 36h5.476l-2.44-6.714a.411.411 0 0 0-.398-.286zm2.839 7L32 49l4.051-13zm8.102 0h5.476l-2.239-6.714c-.125-.381-.672-.381-.798 0zm5.476 0L32 49l10.654-7.64a.821.821 0 0 0 .305-.925zM32 49l-9.527-13-1.432 4.435a.821.821 0 0 0 .305.925z" fill="#974a4d" fill-rule="evenodd"/></svg>
